packages/admin/admin-icons/icons/target-groups.svg

<svg xmlns="http://www.w3.org/2000/svg" width="16" height="16" viewBox="0 0 16 16"><path fill="#0F0F0F" fill-rule="evenodd" d="M8,1.13686838e-13 C8.27614237,1.13703747e-13 8.5,0.223857625 8.5,0.5 L8.49938666,1.01753877 C11.9670295,1.26196388 14.7374768,4.03209953 14.9823903,7.49960757 L15.5,7.5 C15.7761424,7.5 16,7.72385763 16,8 C16,8.27614237 15.7761424,8.5 15.5,8.5 L14.9823568,8.49990237 C14.8631,10.1847218 14.1438738,11.7483219 12.9649911,12.934457 C12.7703286,13.130317 12.4537476,13.1312879 12.2578876,12.9366254 C12.0620276,12.7419629 12.0610568,12.4253819 12.2557193,12.2295219 C13.2501322,11.2289915 13.8624258,9.91707668 13.9794462,8.49970483 L13.5,8.5 C13.2238576,8.5 13,8.27614237 13,8 C13,7.72385763 13.2238576,7.5 13.5,7.5 L13.9793885,7.49909633 C13.7385058,4.58458865 11.4145456,2.26093454 8.49990267,2.02052886 L8.5,2.5 C8.5,2.77614237 8.27614237,3 8,3 C7.72385763,3 7.5,2.77614237 7.5,2.5 L7.49909633,2.02061151 C4.58492231,2.26146658 2.26146658,4.58492231 2.02061151,7.49909633 L2.5,7.5 C2.77614237,7.5 3,7.72385763 3,8 C3,8.27614237 2.77614237,8.5 2.5,8.5 L2.02052886,8.49990267 C2.26096206,11.4148793 4.58512071,13.7390379 7.50009733,13.9794711 L7.5,13.5 C7.5,13.2238576 7.72385763,13 8,13 C8.27614237,13 8.5,13.2238576 8.5,13.5 L8.5,15.5 C8.5,15.7761424 8.27614237,16 8,16 C7.72385763,16 7.5,15.7761424 7.5,15.5 L7.50061334,14.9824612 C4.0326352,14.7380125 1.26198751,11.9673648 1.01753877,8.49938666 L0.5,8.5 C0.223857625,8.5 3.38176876e-17,8.27614237 0,8 C-3.38176876e-17,7.72385763 0.223857625,7.5 0.5,7.5 L1.01760973,7.49960757 C1.26249954,4.03243478 4.03243478,1.26249954 7.49960757,1.01760973 L7.5,0.5 C7.5,0.223857625 7.72385763,1.13669929e-13 8,1.13686838e-13 Z M8,8 C9.3254834,8 10.4100387,9.03153594 10.4946823,10.3356243 L10.5,10.5 L10.5,11.5 C10.5,11.7761424 10.2761424,12 10,12 C9.75454011,12 9.55039163,11.8231248 9.50805567,11.5898756 L9.5,11.5 L9.5,10.5 C9.5,9.67157288 8.82842712,9 8,9 C7.22030388,9 6.57955132,9.59488808 6.50686658,10.35554 L6.5,10.5 L6.5,11 L8,11 C8.24545989,11 8.44960837,11.1768752 8.49194433,11.4101244 L8.5,11.5 C8.5,11.7454599 8.32312484,11.9496084 8.08987563,11.9919443 L8,12 L5.5,12 L5.5,10.5 C5.5,9.11928813 6.61928813,8 8,8 Z M8,3.75 C8.96649831,3.75 9.75,4.53350169 9.75,5.5 C9.75,6.46649831 8.96649831,7.25 8,7.25 C7.03350169,7.25 6.25,6.46649831 6.25,5.5 C6.25,4.53350169 7.03350169,3.75 8,3.75 Z M8,4.75 C7.58578644,4.75 7.25,5.08578644 7.25,5.5 C7.25,5.91421356 7.58578644,6.25 8,6.25 C8.41421356,6.25 8.75,5.91421356 8.75,5.5 C8.75,5.08578644 8.41421356,4.75 8,4.75 Z"/></svg>

<svg width="16" height="16" fill="none" viewBox="0 0 16 16">
  <path fill="#242424" fill-rule="evenodd" d="M8 .001a.5.5 0 0 1 .5.5v.518A7.001 7.001 0 0 1 14.982 7.5h.518a.5.5 0 0 1 0 1h-.518a6.975 6.975 0 0 1-2.017 4.434.5.5 0 1 1-.71-.705A5.976 5.976 0 0 0 13.979 8.5H13.5a.5.5 0 0 1 0-1h.48A6.001 6.001 0 0 0 8.5 2.02v.48a.5.5 0 0 1-1 0v-.48A6.001 6.001 0 0 0 2.02 7.5h.48a.5.5 0 1 1 0 1h-.48a6.001 6.001 0 0 0 5.48 5.48v-.48a.5.5 0 1 1 1 0v2a.5.5 0 0 1-1 0v-.518A7.001 7.001 0 0 1 1.018 8.5H.5a.5.5 0 0 1 0-1h.518A7.001 7.001 0 0 1 7.5 1.019V.5A.5.5 0 0 1 8 0Z M8 8.001a2.5 2.5 0 0 1 2.495 2.336l.005.164v1a.5.5 0 0 1-.992.09L9.5 11.5v-1a1.5 1.5 0 0 0-2.993-.144L6.5 10.5v.5H8a.5.5 0 0 1 .492.41l.008.09a.5.5 0 0 1-.41.492L8 12H5.5v-1.5A2.5 2.5 0 0 1 8 8Z M8 3.751a1.75 1.75 0 1 0 0 3.5 1.75 1.75 0 0 0 0-3.5Zm0 1a.75.75 0 1 1 0 1.5.75.75 0 0 1 0-1.5Z" clip-rule="evenodd"/>
</svg>
